images/3234377.svg

<?xml version="1.0" encoding="UTF-8"?>
<svg xmlns="http://www.w3.org/2000/svg" xmlns:xlink="http://www.w3.org/1999/xlink" width="300pt" height="300pt" viewBox="0 0 300 300" version="1.1">
<defs>
<g>
<symbol overflow="visible" id="glyph0-0">
<path style="stroke:none;" d="M 0.546875 1.9375 L 0.546875 -7.75 L 6.046875 -7.75 L 6.046875 1.9375 Z M 1.171875 1.328125 L 5.4375 1.328125 L 5.4375 -7.140625 L 1.171875 -7.140625 Z M 1.171875 1.328125 "/>
</symbol>
<symbol overflow="visible" id="glyph0-1">
<path style="stroke:none;" d="M 1.078125 -8.015625 L 2.546875 -8.015625 L 6.09375 -1.3125 L 6.09375 -8.015625 L 7.15625 -8.015625 L 7.15625 0 L 5.6875 0 L 2.125 -6.703125 L 2.125 0 L 1.078125 0 Z M 1.078125 -8.015625 "/>
</symbol>
<symbol overflow="visible" id="glyph0-2">
<path style="stroke:none;" d="M 1.078125 -8.015625 L 2.171875 -8.015625 L 2.171875 -4.734375 L 6.109375 -4.734375 L 6.109375 -8.015625 L 7.1875 -8.015625 L 7.1875 0 L 6.109375 0 L 6.109375 -3.8125 L 2.171875 -3.8125 L 2.171875 0 L 1.078125 0 Z M 1.078125 -8.015625 "/>
</symbol>
</g>
</defs>
<g id="surface43841">
<rect x="0" y="0" width="300" height="300" style="fill:rgb(100%,100%,100%);fill-opacity:1;stroke:none;"/>
<path style="fill:none;stroke-width:1.2;stroke-linecap:butt;stroke-linejoin:miter;stroke:rgb(0%,0%,0%);stroke-opacity:1;stroke-miterlimit:10;" d="M 258.136719 209.710938 L 247.511719 183.675781 "/>
<path style="fill:none;stroke-width:1.2;stroke-linecap:butt;stroke-linejoin:miter;stroke:rgb(0%,0%,0%);stroke-opacity:1;stroke-miterlimit:10;" d="M 247.511719 183.675781 L 219.652344 179.855469 "/>
<path style="fill:none;stroke-width:1.2;stroke-linecap:butt;stroke-linejoin:miter;stroke:rgb(0%,0%,0%);stroke-opacity:1;stroke-miterlimit:10;" d="M 245.625 176.738281 L 223.335938 173.683594 "/>
<path style="fill:none;stroke-width:1.2;stroke-linecap:butt;stroke-linejoin:miter;stroke:rgb(0%,0%,0%);stroke-opacity:1;stroke-miterlimit:10;" d="M 264.75 161.457031 L 247.511719 183.675781 "/>
<path style="fill:none;stroke-width:1.2;stroke-linecap:butt;stroke-linejoin:miter;stroke:rgb(0%,0%,0%);stroke-opacity:1;stroke-miterlimit:10;" d="M 219.652344 179.855469 L 209.027344 153.820312 "/>
<path style="fill:none;stroke-width:1.2;stroke-linecap:butt;stroke-linejoin:miter;stroke:rgb(0%,0%,0%);stroke-opacity:1;stroke-miterlimit:10;" d="M 209.027344 153.820312 L 226.265625 131.601562 "/>
<path style="fill:none;stroke-width:1.2;stroke-linecap:butt;stroke-linejoin:miter;stroke:rgb(0%,0%,0%);stroke-opacity:1;stroke-miterlimit:10;" d="M 215.980469 155.652344 L 229.769531 137.878906 "/>
<path style="fill:none;stroke-width:1.2;stroke-linecap:butt;stroke-linejoin:miter;stroke:rgb(0%,0%,0%);stroke-opacity:1;stroke-miterlimit:10;" d="M 209.027344 153.820312 L 181.167969 150 "/>
<path style="fill:none;stroke-width:1.2;stroke-linecap:butt;stroke-linejoin:miter;stroke:rgb(0%,0%,0%);stroke-opacity:1;stroke-miterlimit:10;" d="M 226.265625 131.601562 L 254.125 135.417969 "/>
<path style="fill:none;stroke-width:1.2;stroke-linecap:butt;stroke-linejoin:miter;stroke:rgb(0%,0%,0%);stroke-opacity:1;stroke-miterlimit:10;" d="M 254.125 135.417969 L 264.75 161.457031 "/>
<path style="fill:none;stroke-width:1.2;stroke-linecap:butt;stroke-linejoin:miter;stroke:rgb(0%,0%,0%);stroke-opacity:1;stroke-miterlimit:10;" d="M 249.0625 140.523438 L 257.5625 161.351562 "/>
<path style="fill:none;stroke-width:1.2;stroke-linecap:butt;stroke-linejoin:miter;stroke:rgb(0%,0%,0%);stroke-opacity:1;stroke-miterlimit:10;" d="M 181.167969 150 L 175.855469 136.980469 "/>
<path style="fill:none;stroke-width:1.2;stroke-linecap:butt;stroke-linejoin:miter;stroke:rgb(0%,0%,100%);stroke-opacity:1;stroke-miterlimit:10;" d="M 175.855469 136.980469 L 170.542969 123.960938 "/>
<path style="fill:none;stroke-width:1.2;stroke-linecap:butt;stroke-linejoin:miter;stroke:rgb(0%,0%,100%);stroke-opacity:1;stroke-miterlimit:10;" d="M 170.542969 123.960938 L 156.613281 122.054688 "/>
<path style="fill:none;stroke-width:1.2;stroke-linecap:butt;stroke-linejoin:miter;stroke:rgb(0%,0%,0%);stroke-opacity:1;stroke-miterlimit:10;" d="M 156.613281 122.054688 L 142.683594 120.144531 "/>
<path style=" stroke:none;fill-rule:nonzero;fill:rgb(100%,100%,100%);fill-opacity:1;" d="M 162.542969 117.460938 L 179.542969 117.460938 L 179.542969 130.460938 L 162.542969 130.460938 Z M 162.542969 117.460938 "/>
<g style="fill:rgb(0%,0%,100%);fill-opacity:1;">
  <use xlink:href="#glyph0-1" x="162.542969" y="127.362305"/>
  <use xlink:href="#glyph0-2" x="170.526367" y="127.362305"/>
</g>
<path style="fill:none;stroke-width:1.2;stroke-linecap:butt;stroke-linejoin:miter;stroke:rgb(0%,0%,0%);stroke-opacity:1;stroke-miterlimit:10;" d="M 142.683594 120.144531 L 137.371094 107.125 "/>
<path style="fill:none;stroke-width:1.2;stroke-linecap:butt;stroke-linejoin:miter;stroke:rgb(0%,0%,100%);stroke-opacity:1;stroke-miterlimit:10;" d="M 137.371094 107.125 L 132.058594 94.105469 "/>
<path style="fill:none;stroke-width:1.2;stroke-linecap:butt;stroke-linejoin:miter;stroke:rgb(0%,0%,0%);stroke-opacity:1;stroke-miterlimit:10;" d="M 135.496094 120.039062 L 131.246094 109.625 "/>
<path style="fill:none;stroke-width:1.2;stroke-linecap:butt;stroke-linejoin:miter;stroke:rgb(0%,0%,100%);stroke-opacity:1;stroke-miterlimit:10;" d="M 131.246094 109.625 L 126.996094 99.210938 "/>
<path style="fill:none;stroke-width:1.2;stroke-linecap:butt;stroke-linejoin:miter;stroke:rgb(0%,0%,0%);stroke-opacity:1;stroke-miterlimit:10;" d="M 125.445312 142.363281 L 142.683594 120.144531 "/>
<path style="fill:none;stroke-width:1.2;stroke-linecap:butt;stroke-linejoin:miter;stroke:rgb(0%,0%,100%);stroke-opacity:1;stroke-miterlimit:10;" d="M 132.058594 94.105469 L 118.128906 92.199219 "/>
<path style="fill:none;stroke-width:1.2;stroke-linecap:butt;stroke-linejoin:miter;stroke:rgb(0%,0%,0%);stroke-opacity:1;stroke-miterlimit:10;" d="M 118.128906 92.199219 L 104.199219 90.289062 "/>
<path style=" stroke:none;fill-rule:nonzero;fill:rgb(100%,100%,100%);fill-opacity:1;" d="M 128.058594 87.605469 L 136.058594 87.605469 L 136.058594 100.605469 L 128.058594 100.605469 Z M 128.058594 87.605469 "/>
<g style="fill:rgb(0%,0%,100%);fill-opacity:1;">
  <use xlink:href="#glyph0-1" x="128.058594" y="97.506836"/>
</g>
<path style="fill:none;stroke-width:1.2;stroke-linecap:butt;stroke-linejoin:miter;stroke:rgb(0%,0%,0%);stroke-opacity:1;stroke-miterlimit:10;" d="M 104.199219 90.289062 L 95.582031 101.398438 "/>
<path style="fill:none;stroke-width:1.2;stroke-linecap:butt;stroke-linejoin:miter;stroke:rgb(0%,0%,100%);stroke-opacity:1;stroke-miterlimit:10;" d="M 95.582031 101.398438 L 86.960938 112.507812 "/>
<path style="fill:none;stroke-width:1.2;stroke-linecap:butt;stroke-linejoin:miter;stroke:rgb(0%,0%,0%);stroke-opacity:1;stroke-miterlimit:10;" d="M 107.703125 96.566406 L 100.808594 105.453125 "/>
<path style="fill:none;stroke-width:1.2;stroke-linecap:butt;stroke-linejoin:miter;stroke:rgb(0%,0%,100%);stroke-opacity:1;stroke-miterlimit:10;" d="M 100.808594 105.453125 L 93.914062 114.339844 "/>
<path style="fill:none;stroke-width:1.2;stroke-linecap:butt;stroke-linejoin:miter;stroke:rgb(0%,0%,100%);stroke-opacity:1;stroke-miterlimit:10;" d="M 86.960938 112.507812 L 92.273438 125.527344 "/>
<path style="fill:none;stroke-width:1.2;stroke-linecap:butt;stroke-linejoin:miter;stroke:rgb(0%,0%,0%);stroke-opacity:1;stroke-miterlimit:10;" d="M 92.273438 125.527344 L 97.585938 138.542969 "/>
<path style=" stroke:none;fill-rule:nonzero;fill:rgb(100%,100%,100%);fill-opacity:1;" d="M 82.960938 106.007812 L 90.960938 106.007812 L 90.960938 119.007812 L 82.960938 119.007812 Z M 82.960938 106.007812 "/>
<g style="fill:rgb(0%,0%,100%);fill-opacity:1;">
  <use xlink:href="#glyph0-1" x="82.960938" y="115.90918"/>
</g>
<path style="fill:none;stroke-width:1.2;stroke-linecap:butt;stroke-linejoin:miter;stroke:rgb(0%,0%,0%);stroke-opacity:1;stroke-miterlimit:10;" d="M 97.585938 138.542969 L 125.445312 142.363281 "/>
<path style="fill:none;stroke-width:1.2;stroke-linecap:butt;stroke-linejoin:miter;stroke:rgb(0%,0%,0%);stroke-opacity:1;stroke-miterlimit:10;" d="M 101.269531 132.371094 L 123.558594 135.425781 "/>
<path style="fill:none;stroke-width:1.2;stroke-linecap:butt;stroke-linejoin:miter;stroke:rgb(0%,0%,0%);stroke-opacity:1;stroke-miterlimit:10;" d="M 97.585938 138.542969 L 80.347656 160.761719 "/>
<path style="fill:none;stroke-width:1.2;stroke-linecap:butt;stroke-linejoin:miter;stroke:rgb(0%,0%,0%);stroke-opacity:1;stroke-miterlimit:10;" d="M 80.347656 160.761719 L 52.488281 156.945312 "/>
<path style="fill:none;stroke-width:1.2;stroke-linecap:butt;stroke-linejoin:miter;stroke:rgb(0%,0%,0%);stroke-opacity:1;stroke-miterlimit:10;" d="M 76.664062 166.9375 L 54.375 163.882812 "/>
<path style="fill:none;stroke-width:1.2;stroke-linecap:butt;stroke-linejoin:miter;stroke:rgb(0%,0%,0%);stroke-opacity:1;stroke-miterlimit:10;" d="M 90.972656 186.800781 L 80.347656 160.761719 "/>
<path style="fill:none;stroke-width:1.2;stroke-linecap:butt;stroke-linejoin:miter;stroke:rgb(0%,0%,0%);stroke-opacity:1;stroke-miterlimit:10;" d="M 52.488281 156.945312 L 43.867188 168.054688 "/>
<path style="fill:none;stroke-width:1.2;stroke-linecap:butt;stroke-linejoin:miter;stroke:rgb(0%,0%,100%);stroke-opacity:1;stroke-miterlimit:10;" d="M 43.867188 168.054688 L 35.25 179.164062 "/>
<path style="fill:none;stroke-width:1.2;stroke-linecap:butt;stroke-linejoin:miter;stroke:rgb(0%,0%,100%);stroke-opacity:1;stroke-miterlimit:10;" d="M 35.25 179.164062 L 40.5625 192.183594 "/>
<path style="fill:none;stroke-width:1.2;stroke-linecap:butt;stroke-linejoin:miter;stroke:rgb(0%,0%,0%);stroke-opacity:1;stroke-miterlimit:10;" d="M 40.5625 192.183594 L 45.875 205.199219 "/>
<path style="fill:none;stroke-width:1.2;stroke-linecap:butt;stroke-linejoin:miter;stroke:rgb(0%,0%,100%);stroke-opacity:1;stroke-miterlimit:10;" d="M 42.4375 179.269531 L 46.6875 189.683594 "/>
<path style="fill:none;stroke-width:1.2;stroke-linecap:butt;stroke-linejoin:miter;stroke:rgb(0%,0%,0%);stroke-opacity:1;stroke-miterlimit:10;" d="M 46.6875 189.683594 L 50.9375 200.097656 "/>
<path style=" stroke:none;fill-rule:nonzero;fill:rgb(100%,100%,100%);fill-opacity:1;" d="M 31.25 172.664062 L 39.25 172.664062 L 39.25 185.664062 L 31.25 185.664062 Z M 31.25 172.664062 "/>
<g style="fill:rgb(0%,0%,100%);fill-opacity:1;">
  <use xlink:href="#glyph0-1" x="31.25" y="182.56543"/>
</g>
<path style="fill:none;stroke-width:1.2;stroke-linecap:butt;stroke-linejoin:miter;stroke:rgb(0%,0%,0%);stroke-opacity:1;stroke-miterlimit:10;" d="M 45.875 205.199219 L 73.734375 209.019531 "/>
<path style="fill:none;stroke-width:1.2;stroke-linecap:butt;stroke-linejoin:miter;stroke:rgb(0%,0%,0%);stroke-opacity:1;stroke-miterlimit:10;" d="M 73.734375 209.019531 L 90.972656 186.800781 "/>
<path style="fill:none;stroke-width:1.2;stroke-linecap:butt;stroke-linejoin:miter;stroke:rgb(0%,0%,0%);stroke-opacity:1;stroke-miterlimit:10;" d="M 70.230469 202.742188 L 84.019531 184.964844 "/>
</g>
</svg>

<svg xmlns="http://www.w3.org/2000/svg" xmlns:xlink="http://www.w3.org/1999/xlink" width="300pt" height="300pt" viewBox="0 0 300 300"><defs><symbol overflow="visible"><path d="M.547 1.938V-7.75h5.5v9.688zm.625-.61h4.266v-8.47H1.171zm0 0"/></symbol><symbol overflow="visible" id="a"><path d="M1.078-8.016h1.47l3.546 6.704v-6.704h1.062V0H5.688L2.124-6.703V0H1.078zm0 0"/></symbol><symbol overflow="visible" id="b"><path d="M1.078-8.016h1.094v3.282H6.11v-3.282h1.077V0H6.11v-3.813H2.17V0H1.078zm0 0"/></symbol></defs><g><path fill="#fff" d="M0 0h300v300H0z"/><path d="M258.137 209.71l-10.625-26.034M247.512 183.676l-27.86-3.82M245.625 176.738l-22.29-3.054M264.75 161.457l-17.238 22.22M219.652 179.855l-10.625-26.035M209.027 153.82l17.24-22.218M215.98 155.652l13.79-17.773M209.027 153.82l-27.86-3.82M226.266 131.602l27.86 3.816M254.125 135.418l10.625 26.04M249.063 140.523l8.5 20.83M181.168 150l-5.313-13.02" stroke-width="1.2" stroke="#000" stroke-miterlimit="10" fill="none"/><path d="M175.855 136.98l-5.312-13.02M170.543 123.96l-13.93-1.905" stroke-width="1.2" stroke="#00f" stroke-miterlimit="10" fill="none"/><path d="M156.613 122.055l-13.93-1.91" stroke-width="1.2" stroke="#000" stroke-miterlimit="10" fill="none"/><path d="M162.543 117.46h17v13h-17zm0 0" fill="#fff"/><g fill="#00f"><use xlink:href="#a" x="162.543" y="127.362"/><use xlink:href="#b" x="170.526" y="127.362"/></g><path d="M142.684 120.145l-5.313-13.02" stroke-width="1.2" stroke="#000" stroke-miterlimit="10" fill="none"/><path d="M137.37 107.125l-5.31-13.02" stroke-width="1.2" stroke="#00f" stroke-miterlimit="10" fill="none"/><path d="M135.496 120.04l-4.25-10.415" stroke-width="1.2" stroke="#000" stroke-miterlimit="10" fill="none"/><path d="M131.246 109.625l-4.25-10.414" stroke-width="1.2" stroke="#00f" stroke-miterlimit="10" fill="none"/><path d="M125.445 142.363l17.24-22.218" stroke-width="1.2" stroke="#000" stroke-miterlimit="10" fill="none"/><path d="M132.06 94.105L118.13 92.2" stroke-width="1.2" stroke="#00f" stroke-miterlimit="10" fill="none"/><path d="M118.13 92.2l-13.93-1.91" stroke-width="1.2" stroke="#000" stroke-miterlimit="10" fill="none"/><path d="M128.06 87.605h8v13h-8zm0 0" fill="#fff"/><use xlink:href="#a" x="128.059" y="97.507" fill="#00f"/><path d="M104.2 90.29l-8.618 11.108" stroke-width="1.2" stroke="#000" stroke-miterlimit="10" fill="none"/><path d="M95.582 101.398l-8.62 11.11" stroke-width="1.2" stroke="#00f" stroke-miterlimit="10" fill="none"/><path d="M107.703 96.566l-6.894 8.887" stroke-width="1.2" stroke="#000" stroke-miterlimit="10" fill="none"/><path d="M100.81 105.453l-6.896 8.887M86.96 112.508l5.313 13.02" stroke-width="1.2" stroke="#00f" stroke-miterlimit="10" fill="none"/><path d="M92.273 125.527l5.313 13.016" stroke-width="1.2" stroke="#000" stroke-miterlimit="10" fill="none"/><path d="M82.96 106.008h8v13h-8zm0 0" fill="#fff"/><use xlink:href="#a" x="82.961" y="115.909" fill="#00f"/><path d="M97.586 138.543l27.86 3.82M101.27 132.37l22.29 3.056M97.586 138.543l-17.238 22.22M80.348 160.762l-27.86-3.817M76.664 166.938l-22.29-3.055M90.973 186.8l-10.625-26.038M52.488 156.945l-8.62 11.11" stroke-width="1.2" stroke="#000" stroke-miterlimit="10" fill="none"/><path d="M43.867 168.055l-8.617 11.11M35.25 179.164l5.313 13.02" stroke-width="1.2" stroke="#00f" stroke-miterlimit="10" fill="none"/><path d="M40.563 192.184l5.312 13.015" stroke-width="1.2" stroke="#000" stroke-miterlimit="10" fill="none"/><path d="M42.438 179.27l4.25 10.414" stroke-width="1.2" stroke="#00f" stroke-miterlimit="10" fill="none"/><path d="M46.688 189.684l4.25 10.414" stroke-width="1.2" stroke="#000" stroke-miterlimit="10" fill="none"/><path d="M31.25 172.664h8v13h-8zm0 0" fill="#fff"/><use xlink:href="#a" x="31.25" y="182.565" fill="#00f"/><path d="M45.875 205.2l27.86 3.82M73.734 209.02l17.24-22.22M70.23 202.742l13.79-17.777" stroke-width="1.2" stroke="#000" stroke-miterlimit="10" fill="none"/></g></svg>
